X:678
T:Reel 678
M:4/4
K:Dmaj
L:1/8
Ac|d2dc dfed|cABc dfec|d2FA DFAd||cAGF EFGE:||2cAGE EDD2|fgfd efec|dfed cAAG|f2fa e2eg|faec d2de|fedf efge|afge fefg|afge fdec|Addc dfed|
